packages/core/src/svgs/tokens/branded/O3.svg

<svg width="24" height="24" viewBox="0 0 24 24" fill="none" xmlns="http://www.w3.org/2000/svg">
<path fill-rule="evenodd" clip-rule="evenodd" d="M8.11108 18.6666H18.6666C19.3002 18.6666 19.9208 18.486 20.4555 18.146C20.9902 17.806 21.4169 17.3205 21.6855 16.7467C21.9543 16.1727 22.0538 15.5341 21.9724 14.9057C21.8911 14.2772 21.6324 13.685 21.2265 13.1983C21.4937 12.8975 21.6988 12.5468 21.8301 12.1666C21.9614 11.7863 22.0163 11.3838 21.9917 10.9822C21.9671 10.5808 21.8633 10.188 21.6864 9.82656C21.5096 9.46517 21.2632 9.14226 20.9613 8.87636C20.6594 8.61046 20.308 8.4068 19.9271 8.27707C19.5463 8.14735 19.1435 8.09411 18.742 8.12041C18.3406 8.14673 17.9483 8.25205 17.5877 8.43037C17.2269 8.60867 16.9051 8.85646 16.6405 9.15948C16.6378 9.16528 16.6347 9.17086 16.631 9.17615C16.3754 9.54282 16.186 10.2928 16.6882 10.7394C17.1826 11.1795 17.9093 11.0023 18.2965 10.6422C18.3857 10.5323 18.5012 10.4468 18.6325 10.394C18.7637 10.3411 18.9062 10.3225 19.0467 10.3399C19.1871 10.3573 19.3207 10.4102 19.435 10.4935C19.5494 10.577 19.6405 10.6881 19.7 10.8164C19.7595 10.9448 19.7854 11.0862 19.7752 11.2272C19.7649 11.3684 19.7189 11.5046 19.6414 11.623C19.564 11.7414 19.4577 11.8382 19.3325 11.9041C19.2074 11.9701 19.0674 12.003 18.926 12.0001L18.9277 12.005C18.2955 12.005 17.5527 12.44 17.5527 13.3894C17.5527 14.3395 18.3093 14.7267 18.9277 14.7683L18.9272 14.7706H18.9405C19.1624 14.7706 19.3754 14.8588 19.5324 15.0157C19.6895 15.1727 19.7777 15.3857 19.7777 15.6078C19.7777 15.8298 19.6895 16.0428 19.5324 16.1998C19.3754 16.3568 19.1624 16.445 18.9405 16.445C18.8377 16.445 18.7449 16.4433 18.6605 16.4405L18.6593 16.445H8.80663L8.80828 16.4428C7.82885 16.4737 6.86663 16.1801 6.07132 15.6076C5.27602 15.0351 4.69221 14.2158 4.41073 13.2772C4.12926 12.3385 4.16589 11.3332 4.51493 10.4175C4.86397 9.50187 5.50584 8.72723 6.3407 8.21412C7.17556 7.70101 8.1566 7.47822 9.13119 7.58038C10.1058 7.68254 11.0193 8.10392 11.7297 8.779C12.4399 9.45408 12.9072 10.345 13.0587 11.3132C13.2104 12.2812 13.0377 13.2724 12.5677 14.1322C12.5527 14.162 12.5368 14.1914 12.5205 14.2206C12.1472 14.8866 12.1716 15.3472 12.6355 15.7205C13.4466 16.1261 14.21 15.6884 14.3811 15.4356C15.0059 14.3987 15.3351 13.2107 15.3332 12.0001C15.3332 8.31838 12.3482 5.33339 8.66663 5.33339C4.98499 5.33339 2 8.31838 2 12.0001C2 15.4945 4.68888 18.3611 8.11108 18.6439V18.6666Z" fill="url(#paint0_linear_364_10401)"/>
<defs>
<linearGradient id="paint0_linear_364_10401" x1="12.0001" y1="5.33339" x2="10.5171" y2="18.1262" gradientUnits="userSpaceOnUse">
<stop stop-color="#42B06B"/>
<stop offset="1" stop-color="#06AF8F"/>
</linearGradient>
</defs>
</svg>

<svg xmlns="http://www.w3.org/2000/svg" width="24" height="24" fill="none" viewBox="0 0 24 24">
    <path fill="url(#O3__a)" fill-rule="evenodd" d="M8.111 18.667h10.556a3.334 3.334 0 0 0 2.56-5.469A3.055 3.055 0 1 0 16.64 9.16l-.009.017c-.256.367-.445 1.117.057 1.563.495.44 1.221.263 1.609-.097A.833.833 0 1 1 18.926 12l.002.005c-.633 0-1.375.435-1.375 1.384 0 .95.756 1.338 1.375 1.38v.002h.012a.838.838 0 0 1 0 1.674q-.153 0-.28-.005v.005H8.806l.001-.002a4.445 4.445 0 1 1 3.713-2.222c-.374.666-.35 1.126.114 1.5.812.405 1.575-.033 1.746-.285a6.667 6.667 0 1 0-6.27 3.208z" clip-rule="evenodd"/>
    <defs>
        <linearGradient id="O3__a" x1="12" x2="10.517" y1="5.333" y2="18.126" gradientUnits="userSpaceOnUse">
            <stop stop-color="#42B06B"/>
            <stop offset="1" stop-color="#06AF8F"/>
        </linearGradient>
    </defs>
</svg>
